X: 56
T:Blackberry Blossom
R:reel
S:Robin Williams Fiddle book
Z:Added by Alf Warnock - alf0@rogers.com - www.alfwarnock.info/alfs
M:4/4
L:1/8
K:G
g2bg f2af|egfe dBAG|EFGF E2GA|BdBG A4|
(3gfg bg f2af|efge dBAB|E2GF EFGA|BGAF G4:|
|:B2eB dBed|B2eB dBAF|B2eB d2ef|gbag edBA|
B2eB dBed|B2eB dBAF|[1 GABA A2GA|BGAF GFED:|[2 GABd efge|dBAB G4|]

